X:67
T:Jerusalem Ridge
C:Bill Monroe/Kenny Baker
M:2/4
K:C
L:1/16
|: "Am" A,B,CD E2(EF) | EDCE DCEC | A,B,CD EGAG | "E" EDCE "E7" DCA,G, |
"Am"    A,B,CD E2(EF) | EDCE DCEC | A,B,CD EGAG | "Em" EDCB, "Am" A,4 :|
|: "Am" E2A2 A3G | A2B2 c4 | E2A2 A3B | c2e2 "E" e4 |
"Am" E2A2 A3B | cABc A3G | \
M:3/4
"E" E2(EG) EDCD EDCB, | \
M:2/4
|1 "Am" (A,4A,2) z2 :|2
"Am" A,6 A2 ||  E6 A2 | "Dm" D6 (ED) | "C" C4 (B,2CB,) |
"Am" A,4 A2 |   E6 A2 | "Dm" D6 (ED) | "C" C4 (B,2CB,) | "Am" A,6 z2 |
"Am" e2a2 a3g | a2b2 c'4 | "C" eg2e g3e |
"C" gage dc2d | "Am" e2a2 agab | c'abc' ac'ag | \
M:3/4
"E7" e2(ef) edcd edcB | \
M:2/4
"Am" A6 z2 |
A2(Ac) | AGED | \
M:3/4
"E" EDEG EDCD EDCB, | \
M:2/4
"Am" (A,4 A,2)(A,G,) | A,6 z2 :|

